X:1
T:Cwm Rhondda
T:Guide me, O thou great Redeemer
T:John Hughes
T:87 87 47
%%score { ( 1 2 ) | ( 3 4 ) }
L:1/8
M:none
K:G
V:1 treble nm="Piano"
V:2 treble 
V:3 bass 
V:4 bass 
V:1
 D2 E2 D3 G | GF GA B2 A2 | B2 G2 E2 c2 | B2 A2 G4 || D2 E2 D3 G | GF GA B2 A2 | B2 c2 d2 cA | %7
 G2 F2 G4 || A3 B c2 A2 | B3 c d2 B2 | d3 d dd dd | d8 || d3 c Bd cA | G2 F2 G4 |] %14
V:2
 B,2 C2 D3 D | D2 DE D2 D2 | D2 C2 E2 E2 | D2 C2 B,4 || B,2 C2 D3 D | D2 DE D2 D2 | D2 E2 D2 E2 | %7
 D2 D2 D4 || F3 G A2 D2 | G3 A BA G2 | G3 G FG DD | F2 DF A4 || G3 F G2 E2 | D2 D2 D4 |] %14
V:3
 G,2 G,2 G,3 B, | B,A, G,2 G,2 F,2 | G,2 G,2 G,2 G,2 | G,2 F,2 G,4 || G,2 G,2 G,3 B, | %5
 B,A, G,2 G,2 F,2 | G,2 G,2 G,2 G,C | B,2 A,2 B,4 || C3 B, A,G, F,A, | D3 C B,2 D2 | %10
 D3 D CB, A,G, | D8 || D3 D DB, G,C | B,2 A,2 B,4 |] %14
V:4
 G,,2 C,2 B,,2 A,,2 | G,,A,, B,,C, D,2 D,2 | G,2 E,2 C,2 A,,2 | D,2 D,2 G,,4 || %4
 G,,2 C,2 B,,2 A,,2 | G,,A,, B,,C, D,2 D,2 | G,2 E,2 B,,2 C,2 | D,2 D,2 G,,4 || D,3 D, D,E, F,2 | %9
 G,3 D, G,A, B,2 | B,3 B, A,G, F,E, | D,2 F,A, C4 || B,3 A, G,2 C,2 | D,2 D,2 G,4 |] %14

